icons/jiraalign/jiraalign-plain.svg

<?xml version="1.0" encoding="UTF-8" standalone="no"?>
<svg
   width="129"
   height="129"
   viewBox="0 0 129 129"
   fill="none"
   version="1.1"
   id="svg59"
   sodipodi:docname="jiraalign-plain.svg"
   inkscape:version="1.2.1 (9c6d41e410, 2022-07-14)"
   xmlns:inkscape="http://www.inkscape.org/namespaces/inkscape"
   xmlns:sodipodi="http://sodipodi.sourceforge.net/DTD/sodipodi-0.dtd"
   xmlns="http://www.w3.org/2000/svg"
   xmlns:svg="http://www.w3.org/2000/svg">
  <sodipodi:namedview
     id="namedview61"
     pagecolor="#ffffff"
     bordercolor="#666666"
     borderopacity="1.0"
     inkscape:showpageshadow="2"
     inkscape:pageopacity="0.0"
     inkscape:pagecheckerboard="0"
     inkscape:deskcolor="#d1d1d1"
     showgrid="false"
     inkscape:zoom="3.1507139"
     inkscape:cx="54.590802"
     inkscape:cy="50.147365"
     inkscape:window-width="1920"
     inkscape:window-height="947"
     inkscape:window-x="0"
     inkscape:window-y="27"
     inkscape:window-maximized="1"
     inkscape:current-layer="svg59" />
  <path
     id="Vector"
     style="fill:#000000;fill-opacity:1;stroke-width:6.46335"
     d="M 0.62109375 0.5 C 0.62109375 24.602404 20.240426 44.257813 44.296875 44.257812 L 84.703125 44.257812 L 84.703125 84.976562 L 128.37891 84.976562 L 128.37891 7.7539062 C 128.37891 4.0098184 125.34258 0.734375 121.60547 0.734375 L 0.62109375 0.5 z M 44.296875 44.257812 L 0.62109375 44.257812 L 0.62109375 121.48047 C 0.62109375 125.22469 3.6575789 128.5 7.3945312 128.5 L 128.14453 128.5 C 128.14453 104.39753 108.52533 84.974609 84.46875 84.974609 L 44.296875 84.974609 L 44.296875 44.257812 z " />
  <defs
     id="defs57">
    <linearGradient
       id="paint0_linear"
       x1="8.2773504"
       y1="20.545799"
       x2="9.8179102"
       y2="12.6354"
       gradientUnits="userSpaceOnUse">
      <stop
         offset="0.15"
         stop-color="#344563"
         id="stop41" />
      <stop
         offset="0.4189"
         stop-color="#465671"
         id="stop43" />
      <stop
         offset="0.9588"
         stop-color="#768297"
         id="stop45" />
      <stop
         offset="1"
         stop-color="#7A869A"
         id="stop47" />
    </linearGradient>
    <linearGradient
       id="paint1_linear"
       x1="11.4689"
       y1="10.8472"
       x2="9.9281197"
       y2="18.757601"
       gradientUnits="userSpaceOnUse">
      <stop
         offset="0.15"
         stop-color="#384560"
         id="stop50" />
      <stop
         offset="0.4328"
         stop-color="#4A5770"
         id="stop52" />
      <stop
         offset="1"
         stop-color="#7A869A"
         id="stop54" />
    </linearGradient>
  </defs>
</svg>

<svg xmlns="http://www.w3.org/2000/svg" fill="none" viewBox="0 0 129 129"><path fill="#000" d="M.621.5c0 24.102 19.62 43.758 43.676 43.758h40.406v40.719h43.676V7.754c0-3.744-3.036-7.02-6.774-7.02L.621.5zm43.676 43.758H.62v77.222c0 3.745 3.037 7.02 6.774 7.02h120.75c0-24.102-19.62-43.525-43.676-43.525H44.297V44.258z"/></svg>
